teeny/solid/rust.svg

<svg width="15" height="15" viewBox="0 0 15 15" fill="none" xmlns="http://www.w3.org/2000/svg">
<path d="M7.17393 0.114518C7.3632 -0.0381728 7.6368 -0.0381728 7.82607 0.114518L9.00398 1.0648L10.4874 0.707745C10.7258 0.650373 10.9723 0.766309 11.075 0.984076L11.7141 2.33937L13.2092 2.64626C13.4495 2.69557 13.6201 2.90448 13.6158 3.14419L13.5895 4.63607L14.8002 5.54612C14.9948 5.69235 15.0557 5.95285 14.9454 6.16703L14.2588 7.5L14.9454 8.83297C15.0557 9.04715 14.9948 9.30765 14.8002 9.45388L14.0737 10H11.5958C11.313 10 11.0838 9.77614 11.0838 9.5C11.0838 8.75601 10.751 8.08792 10.2229 7.62996C10.744 7.26739 11.0838 6.67245 11.0838 6C11.0838 4.89543 10.1669 4 9.03586 4H1.39928L1.38417 3.14419C1.37994 2.90448 1.55053 2.69557 1.79077 2.64626L3.28595 2.33937L3.92502 0.984076C4.0277 0.766309 4.27421 0.650373 4.51257 0.707745L5.99602 1.0648L7.17393 0.114518Z" fill="black"/>
<path d="M0.926329 5L0.199753 5.54612C0.00520829 5.69235 -0.0556747 5.95285 0.0546387 6.16703L0.741183 7.5L0.0546387 8.83297C-0.0556747 9.04715 0.00520829 9.30765 0.199753 9.45388L0.926329 10H3.91608V5H0.926329Z" fill="black"/>
<path d="M1.39928 11L1.38417 11.8558C1.37994 12.0955 1.55053 12.3044 1.79077 12.3537L3.28595 12.6606L3.92502 14.0159C4.0277 14.2337 4.27421 14.3496 4.51257 14.2923L5.99602 13.9352L7.17393 14.8855C7.3632 15.0382 7.6368 15.0382 7.82607 14.8855L9.00398 13.9352L10.4874 14.2923C10.7258 14.3496 10.9723 14.2337 11.075 14.0159L11.7141 12.6606L13.2092 12.3537C13.4495 12.3044 13.6201 12.0955 13.6158 11.8558L13.6007 11H11.5958C10.7475 11 10.0598 10.3284 10.0598 9.5C10.0598 8.67157 9.37216 8 8.52388 8H4.94004V10H6.98795V11H1.39928Z" fill="black"/>
<path d="M9.03586 7H4.94004V5H9.03586C9.60138 5 10.0598 5.44772 10.0598 6C10.0598 6.55228 9.60138 7 9.03586 7Z" fill="black"/>
</svg>

<svg viewBox="0 0 15 15" xmlns="http://www.w3.org/2000/svg"><g><path d="M7.17.11c.18-.16.46-.16.65 0l1.17.95L10.47.7c.23-.06.48.05.58.27l.63 1.35 1.49.3c.24.04.41.25.4.49l-.03 1.49 1.21.91c.19.14.25.4.14.62l-.69 1.33 .68 1.33c.11.21.04.47-.15.62l-.73.54h-2.48c-.29 0-.52-.23-.52-.5 0-.75-.34-1.42-.87-1.88 .52-.37.86-.96.86-1.63 0-1.11-.92-2-2.05-2H1.3l-.02-.86c-.01-.24.16-.45.4-.5l1.49-.31L3.8.91c.1-.22.34-.34.58-.28l1.48.35L7.03.02Z"/><path d="M.92 5l-.73.54c-.2.14-.26.4-.15.62l.68 1.33 -.69 1.33c-.12.21-.05.47.14.62l.72.54h2.98v-5H.88Z"/><path d="M1.39 11l-.02.85c-.01.23.16.44.4.49l1.49.3 .63 1.35c.1.21.34.33.58.27l1.48-.36 1.17.95c.18.15.46.15.65 0l1.17-.96 1.48.35c.23.05.48-.06.58-.28l.63-1.36 1.49-.31c.24-.05.41-.26.4-.5l-.02-.86h-2.01c-.85 0-1.54-.68-1.54-1.5 0-.83-.69-1.5-1.54-1.5H4.82v2h2.04v1H1.27Z"/><path d="M9.03 7h-4.1V5h4.09c.56 0 1.02.44 1.02 1 0 .55-.46 1-1.03 1Z"/></g></svg>
